bernoullicharts/arctan_x_two-coin_special_case__mean.svg

<?xml version="1.0" encoding="utf-8" standalone="no"?>
<!DOCTYPE svg PUBLIC "-//W3C//DTD SVG 1.1//EN"
  "http://www.w3.org/Graphics/SVG/1.1/DTD/svg11.dtd">
<!-- Created with matplotlib (https://matplotlib.org/) -->
<svg height="345.6pt" version="1.1" viewBox="0 0 460.8 345.6" width="460.8pt" xmlns="http://www.w3.org/2000/svg" xmlns:xlink="http://www.w3.org/1999/xlink">
 <defs>
  <style type="text/css">
*{stroke-linecap:butt;stroke-linejoin:round;}
  </style>
 </defs>
 <g id="figure_1">
  <g id="patch_1">
   <path d="M 0 345.6 
L 460.8 345.6 
L 460.8 0 
L 0 0 
z
" style="fill:#ffffff;"/>
  </g>
  <g id="axes_1">
   <g id="patch_2">
    <path d="M 57.6 307.584 
L 414.72 307.584 
L 414.72 41.472 
L 57.6 41.472 
z
" style="fill:#ffffff;"/>
   </g>
   <g id="matplotlib.axis_1">
    <g id="xtick_1">
     <g id="line2d_1">
      <defs>
       <path d="M 0 0 
L 0 3.5 
" id="m187686ea39" style="stroke:#000000;stroke-width:0.8;"/>
      </defs>
      <g>
       <use style="stroke:#000000;stroke-width:0.8;" x="73.800255" xlink:href="#m187686ea39" y="307.584"/>
      </g>
     </g>
     <g id="text_1">
      <text style="font-family:DejaVu Sans;font-size:10px;font-style:normal;font-weight:normal;text-anchor:middle;" transform="rotate(-0, 73.800255, 322.182437)" x="73.800255" y="322.182437">0.0</text>
     </g>
    </g>
    <g id="xtick_2">
     <g id="line2d_2">
      <g>
       <use style="stroke:#000000;stroke-width:0.8;" x="138.744153" xlink:href="#m187686ea39" y="307.584"/>
      </g>
     </g>
     <g id="text_2">
      <text style="font-family:DejaVu Sans;font-size:10px;font-style:normal;font-weight:normal;text-anchor:middle;" transform="rotate(-0, 138.744153, 322.182437)" x="138.744153" y="322.182437">0.2</text>
     </g>
    </g>
    <g id="xtick_3">
     <g id="line2d_3">
      <g>
       <use style="stroke:#000000;stroke-width:0.8;" x="203.688051" xlink:href="#m187686ea39" y="307.584"/>
      </g>
     </g>
     <g id="text_3">
      <text style="font-family:DejaVu Sans;font-size:10px;font-style:normal;font-weight:normal;text-anchor:middle;" transform="rotate(-0, 203.688051, 322.182437)" x="203.688051" y="322.182437">0.4</text>
     </g>
    </g>
    <g id="xtick_4">
     <g id="line2d_4">
      <g>
       <use style="stroke:#000000;stroke-width:0.8;" x="268.631949" xlink:href="#m187686ea39" y="307.584"/>
      </g>
     </g>
     <g id="text_4">
      <text style="font-family:DejaVu Sans;font-size:10px;font-style:normal;font-weight:normal;text-anchor:middle;" transform="rotate(-0, 268.631949, 322.182437)" x="268.631949" y="322.182437">0.6</text>
     </g>
    </g>
    <g id="xtick_5">
     <g id="line2d_5">
      <g>
       <use style="stroke:#000000;stroke-width:0.8;" x="333.575847" xlink:href="#m187686ea39" y="307.584"/>
      </g>
     </g>
     <g id="text_5">
      <text style="font-family:DejaVu Sans;font-size:10px;font-style:normal;font-weight:normal;text-anchor:middle;" transform="rotate(-0, 333.575847, 322.182437)" x="333.575847" y="322.182437">0.8</text>
     </g>
    </g>
    <g id="xtick_6">
     <g id="line2d_6">
      <g>
       <use style="stroke:#000000;stroke-width:0.8;" x="398.519745" xlink:href="#m187686ea39" y="307.584"/>
      </g>
     </g>
     <g id="text_6">
      <text style="font-family:DejaVu Sans;font-size:10px;font-style:normal;font-weight:normal;text-anchor:middle;" transform="rotate(-0, 398.519745, 322.182437)" x="398.519745" y="322.182437">1.0</text>
     </g>
    </g>
    <g id="text_7">
     <text style="font-family:DejaVu Sans;font-size:10px;font-style:normal;font-weight:normal;text-anchor:middle;" transform="rotate(-0, 236.16, 335.860562)" x="236.16" y="335.860562">Input Coin's Heads Probability (λ)</text>
    </g>
   </g>
   <g id="matplotlib.axis_2">
    <g id="ytick_1">
     <g id="line2d_7">
      <defs>
       <path d="M 0 0 
L -3.5 0 
" id="m7decbf5bf2" style="stroke:#000000;stroke-width:0.8;"/>
      </defs>
      <g>
       <use style="stroke:#000000;stroke-width:0.8;" x="57.6" xlink:href="#m7decbf5bf2" y="295.488"/>
      </g>
     </g>
     <g id="text_8">
      <text style="font-family:DejaVu Sans;font-size:10px;font-style:normal;font-weight:normal;text-anchor:end;" transform="rotate(-0, 50.6, 299.287219)" x="50.6" y="299.287219">0.0</text>
     </g>
    </g>
    <g id="ytick_2">
     <g id="line2d_8">
      <g>
       <use style="stroke:#000000;stroke-width:0.8;" x="57.6" xlink:href="#m7decbf5bf2" y="264.865215"/>
      </g>
     </g>
     <g id="text_9">
      <text style="font-family:DejaVu Sans;font-size:10px;font-style:normal;font-weight:normal;text-anchor:end;" transform="rotate(-0, 50.6, 268.664434)" x="50.6" y="268.664434">0.1</text>
     </g>
    </g>
    <g id="ytick_3">
     <g id="line2d_9">
      <g>
       <use style="stroke:#000000;stroke-width:0.8;" x="57.6" xlink:href="#m7decbf5bf2" y="234.24243"/>
      </g>
     </g>
     <g id="text_10">
      <text style="font-family:DejaVu Sans;font-size:10px;font-style:normal;font-weight:normal;text-anchor:end;" transform="rotate(-0, 50.6, 238.041649)" x="50.6" y="238.041649">0.2</text>
     </g>
    </g>
    <g id="ytick_4">
     <g id="line2d_10">
      <g>
       <use style="stroke:#000000;stroke-width:0.8;" x="57.6" xlink:href="#m7decbf5bf2" y="203.619646"/>
      </g>
     </g>
     <g id="text_11">
      <text style="font-family:DejaVu Sans;font-size:10px;font-style:normal;font-weight:normal;text-anchor:end;" transform="rotate(-0, 50.6, 207.418864)" x="50.6" y="207.418864">0.3</text>
     </g>
    </g>
    <g id="ytick_5">
     <g id="line2d_11">
      <g>
       <use style="stroke:#000000;stroke-width:0.8;" x="57.6" xlink:href="#m7decbf5bf2" y="172.996861"/>
      </g>
     </g>
     <g id="text_12">
      <text style="font-family:DejaVu Sans;font-size:10px;font-style:normal;font-weight:normal;text-anchor:end;" transform="rotate(-0, 50.6, 176.79608)" x="50.6" y="176.79608">0.4</text>
     </g>
    </g>
    <g id="ytick_6">
     <g id="line2d_12">
      <g>
       <use style="stroke:#000000;stroke-width:0.8;" x="57.6" xlink:href="#m7decbf5bf2" y="142.374076"/>
      </g>
     </g>
     <g id="text_13">
      <text style="font-family:DejaVu Sans;font-size:10px;font-style:normal;font-weight:normal;text-anchor:end;" transform="rotate(-0, 50.6, 146.173295)" x="50.6" y="146.173295">0.5</text>
     </g>
    </g>
    <g id="ytick_7">
     <g id="line2d_13">
      <g>
       <use style="stroke:#000000;stroke-width:0.8;" x="57.6" xlink:href="#m7decbf5bf2" y="111.751291"/>
      </g>
     </g>
     <g id="text_14">
      <text style="font-family:DejaVu Sans;font-size:10px;font-style:normal;font-weight:normal;text-anchor:end;" transform="rotate(-0, 50.6, 115.55051)" x="50.6" y="115.55051">0.6</text>
     </g>
    </g>
    <g id="ytick_8">
     <g id="line2d_14">
      <g>
       <use style="stroke:#000000;stroke-width:0.8;" x="57.6" xlink:href="#m7decbf5bf2" y="81.128506"/>
      </g>
     </g>
     <g id="text_15">
      <text style="font-family:DejaVu Sans;font-size:10px;font-style:normal;font-weight:normal;text-anchor:end;" transform="rotate(-0, 50.6, 84.927725)" x="50.6" y="84.927725">0.7</text>
     </g>
    </g>
    <g id="ytick_9">
     <g id="line2d_15">
      <g>
       <use style="stroke:#000000;stroke-width:0.8;" x="57.6" xlink:href="#m7decbf5bf2" y="50.505722"/>
      </g>
     </g>
     <g id="text_16">
      <text style="font-family:DejaVu Sans;font-size:10px;font-style:normal;font-weight:normal;text-anchor:end;" transform="rotate(-0, 50.6, 54.30494)" x="50.6" y="54.30494">0.8</text>
     </g>
    </g>
    <g id="text_17">
     <text style="font-family:DejaVu Sans;font-size:10px;font-style:normal;font-weight:normal;text-anchor:middle;" transform="rotate(-90, 28.617187, 174.528)" x="28.617187" y="174.528">Simulated Mean / Function Value</text>
    </g>
   </g>
   <g id="line2d_16">
    <path clip-path="url(#p31c1168249)" d="M 73.832727 295.457377 
L 77.112066 292.364894 
L 80.391405 289.273047 
L 83.670744 286.182467 
L 86.950083 283.093782 
L 90.229421 280.007618 
L 93.50876 276.924598 
L 96.788099 273.84534 
L 100.067438 270.770461 
L 103.346777 267.700568 
L 106.626116 264.636266 
L 109.905455 261.57815 
L 113.184793 258.526811 
L 116.464132 255.482828 
L 119.743471 252.446776 
L 123.02281 249.419217 
L 126.302149 246.400706 
L 129.581488 243.391784 
L 132.860826 240.392986 
L 136.140165 237.404832 
L 139.419504 234.427832 
L 142.698843 231.462482 
L 145.978182 228.509267 
L 149.257521 225.568659 
L 152.53686 222.641116 
L 155.816198 219.727082 
L 159.095537 216.826989 
L 162.374876 213.941252 
L 165.654215 211.070275 
L 168.933554 208.214444 
L 172.212893 205.374133 
L 175.492231 202.549702 
L 178.77157 199.741492 
L 182.050909 196.949833 
L 185.330248 194.17504 
L 188.609587 191.417411 
L 191.888926 188.67723 
L 195.168264 185.954767 
L 198.447603 183.250277 
L 201.726942 180.564 
L 205.006281 177.896163 
L 208.28562 175.246975 
L 211.564959 172.616636 
L 214.844298 170.005329 
L 218.123636 167.413222 
L 221.402975 164.840474 
L 224.682314 162.287226 
L 227.961653 159.753609 
L 231.240992 157.23974 
L 234.520331 154.745724 
L 237.799669 152.271654 
L 241.079008 149.81761 
L 244.358347 147.383662 
L 247.637686 144.969868 
L 250.917025 142.576274 
L 254.196364 140.202916 
L 257.475702 137.849822 
L 260.755041 135.517006 
L 264.03438 133.204475 
L 267.313719 130.912226 
L 270.593058 128.640246 
L 273.872397 126.388516 
L 277.151736 124.157005 
L 280.431074 121.945676 
L 283.710413 119.754484 
L 286.989752 117.583377 
L 290.269091 115.432295 
L 293.54843 113.301172 
L 296.827769 111.189934 
L 300.107107 109.098503 
L 303.386446 107.026793 
L 306.665785 104.974714 
L 309.945124 102.942171 
L 313.224463 100.92906 
L 316.503802 98.935278 
L 319.78314 96.960713 
L 323.062479 95.005251 
L 326.341818 93.068773 
L 329.621157 91.151157 
L 332.900496 89.252276 
L 336.179835 87.372002 
L 339.459174 85.510201 
L 342.738512 83.666739 
L 346.017851 81.841477 
L 349.29719 80.034275 
L 352.576529 78.244991 
L 355.855868 76.473479 
L 359.135207 74.719593 
L 362.414545 72.983185 
L 365.693884 71.264105 
L 368.973223 69.5622 
L 372.252562 67.87732 
L 375.531901 66.209309 
L 378.81124 64.558014 
L 382.090579 62.923278 
L 385.369917 61.304947 
L 388.649256 59.702863 
L 391.928595 58.116869 
L 395.207934 56.546808 
L 398.487273 54.992523 
" style="fill:none;stroke:#1f77b4;stroke-linecap:square;stroke-width:1.5;"/>
   </g>
   <g id="line2d_17">
    <path clip-path="url(#p31c1168249)" d="M 73.832727 295.488 
L 77.112066 293.038177 
L 80.391405 288.138532 
L 83.670744 285.688709 
L 86.950083 277.726785 
L 90.229421 281.401519 
L 93.50876 275.276962 
L 96.788099 280.789063 
L 100.067438 264.252759 
L 103.346777 259.353114 
L 106.626116 264.252759 
L 109.905455 263.640304 
L 113.184793 257.515747 
L 116.464132 259.96557 
L 119.743471 245.266633 
L 123.02281 244.041722 
L 126.302149 240.979443 
L 129.581488 250.166278 
L 132.860826 228.117873 
L 136.140165 238.52962 
L 139.419504 224.443139 
L 142.698843 234.854886 
L 145.978182 220.768405 
L 149.257521 226.892962 
L 152.53686 209.131747 
L 155.816198 218.318582 
L 159.095537 217.093671 
L 162.374876 218.931038 
L 165.654215 217.093671 
L 168.933554 215.868759 
L 172.212893 197.495089 
L 175.492231 204.844557 
L 178.77157 202.394734 
L 182.050909 185.245975 
L 185.330248 187.083342 
L 188.609587 198.107544 
L 191.888926 180.958785 
L 195.168264 174.834228 
L 198.447603 177.896506 
L 201.726942 185.85843 
L 205.006281 172.996861 
L 208.28562 173.609316 
L 211.564959 168.709671 
L 214.844298 166.259848 
L 218.123636 174.221772 
L 221.402975 161.360203 
L 224.682314 171.771949 
L 227.961653 173.609316 
L 231.240992 157.685468 
L 234.520331 146.04881 
L 237.799669 152.785823 
L 241.079008 146.661266 
L 244.358347 150.336 
L 247.637686 147.273722 
L 250.917025 137.47443 
L 254.196364 140.536709 
L 257.475702 138.699342 
L 260.755041 132.574785 
L 264.03438 125.837772 
L 267.313719 134.412152 
L 270.593058 132.574785 
L 273.872397 127.675139 
L 277.151736 131.349873 
L 280.431074 130.124962 
L 283.710413 121.550582 
L 286.989752 120.325671 
L 290.269091 124.612861 
L 293.54843 120.938127 
L 296.827769 112.363747 
L 300.107107 117.263392 
L 303.386446 106.23919 
L 306.665785 103.176911 
L 309.945124 103.789367 
L 313.224463 106.851646 
L 316.503802 98.889722 
L 319.78314 88.477975 
L 323.062479 100.727089 
L 326.341818 92.152709 
L 329.621157 90.927797 
L 332.900496 97.66481 
L 336.179835 89.09043 
L 339.459174 87.865519 
L 342.738512 90.927797 
L 346.017851 75.616405 
L 349.29719 90.927797 
L 352.576529 72.554127 
L 355.855868 65.204658 
L 359.135207 73.779038 
L 362.414545 58.467646 
L 365.693884 60.917468 
L 368.973223 62.754835 
L 372.252562 56.630278 
L 375.531901 71.941671 
L 378.81124 67.042025 
L 382.090579 59.692557 
L 385.369917 70.716759 
L 388.649256 68.266937 
L 391.928595 53.568 
L 395.207934 65.204658 
L 398.487273 60.305013 
" style="fill:none;stroke:#ff7f0e;stroke-linecap:square;stroke-width:1.5;"/>
   </g>
   <g id="patch_3">
    <path d="M 57.6 307.584 
L 57.6 41.472 
" style="fill:none;stroke:#000000;stroke-linecap:square;stroke-linejoin:miter;stroke-width:0.8;"/>
   </g>
   <g id="patch_4">
    <path d="M 414.72 307.584 
L 414.72 41.472 
" style="fill:none;stroke:#000000;stroke-linecap:square;stroke-linejoin:miter;stroke-width:0.8;"/>
   </g>
   <g id="patch_5">
    <path d="M 57.6 307.584 
L 414.72 307.584 
" style="fill:none;stroke:#000000;stroke-linecap:square;stroke-linejoin:miter;stroke-width:0.8;"/>
   </g>
   <g id="patch_6">
    <path d="M 57.6 41.472 
L 414.72 41.472 
" style="fill:none;stroke:#000000;stroke-linecap:square;stroke-linejoin:miter;stroke-width:0.8;"/>
   </g>
   <g id="text_18">
    <text style="font-family:DejaVu Sans;font-size:12px;font-style:normal;font-weight:normal;text-anchor:middle;" transform="rotate(-0, 236.16, 35.472)" x="236.16" y="35.472">Expected Value in arctan(x) (Two-Coin Special Case) Algorithm</text>
   </g>
   <g id="legend_1">
    <g id="patch_7">
     <path d="M 110.535625 302.584 
L 407.72 302.584 
Q 409.72 302.584 409.72 300.584 
L 409.72 272.22775 
Q 409.72 270.22775 407.72 270.22775 
L 110.535625 270.22775 
Q 108.535625 270.22775 108.535625 272.22775 
L 108.535625 300.584 
Q 108.535625 302.584 110.535625 302.584 
z
" style="fill:#ffffff;opacity:0.8;stroke:#cccccc;stroke-linejoin:miter;"/>
    </g>
    <g id="line2d_18">
     <path d="M 112.535625 278.326187 
L 132.535625 278.326187 
" style="fill:none;stroke:#1f77b4;stroke-linecap:square;stroke-width:1.5;"/>
    </g>
    <g id="line2d_19"/>
    <g id="text_19">
     <text style="font-family:DejaVu Sans;font-size:10px;font-style:normal;font-weight:normal;text-anchor:start;" transform="rotate(-0, 140.535625, 281.826187)" x="140.535625" y="281.826187">arctan(x)</text>
    </g>
    <g id="line2d_20">
     <path d="M 112.535625 293.004312 
L 132.535625 293.004312 
" style="fill:none;stroke:#ff7f0e;stroke-linecap:square;stroke-width:1.5;"/>
    </g>
    <g id="line2d_21"/>
    <g id="text_20">
     <text style="font-family:DejaVu Sans;font-size:10px;font-style:normal;font-weight:normal;text-anchor:start;" transform="rotate(-0, 140.535625, 296.504312)" x="140.535625" y="296.504312">Simulated Mean of arctan(x) (Two-Coin Special Case)</text>
    </g>
   </g>
  </g>
 </g>
 <defs>
  <clipPath id="p31c1168249">
   <rect height="266.112" width="357.12" x="57.6" y="41.472"/>
  </clipPath>
 </defs>
</svg>

<svg height="460.8" viewBox="0 0 460.8 345.6" width="614.4" xmlns="http://www.w3.org/2000/svg" xmlns:xlink="http://www.w3.org/1999/xlink"><defs><style>*{stroke-linecap:butt;stroke-linejoin:round}</style></defs><g id="figure_1"><path d="M0 345.6h460.8V0H0z" fill="#fff" id="patch_1"/><g id="axes_1"><path d="M57.6 307.584h357.12V41.472H57.6z" fill="#fff" id="patch_2"/><g id="matplotlib.axis_1"><g id="xtick_1"><g id="line2d_1"><defs><path d="M0 0v3.5" id="m187686ea39" stroke="#000" stroke-width=".8"/></defs><use x="73.8" xlink:href="#m187686ea39" y="307.584" stroke="#000" stroke-width=".8"/></g><text x="73.8" y="322.182" font-family="DejaVu Sans" font-size="10" font-weight="400" text-anchor="middle" id="text_1">0.0</text></g><g id="xtick_2"><use x="138.744" xlink:href="#m187686ea39" y="307.584" stroke="#000" stroke-width=".8" id="line2d_2"/><text x="138.744" y="322.182" font-family="DejaVu Sans" font-size="10" font-weight="400" text-anchor="middle" id="text_2">0.2</text></g><g id="xtick_3"><use x="203.688" xlink:href="#m187686ea39" y="307.584" stroke="#000" stroke-width=".8" id="line2d_3"/><text x="203.688" y="322.182" font-family="DejaVu Sans" font-size="10" font-weight="400" text-anchor="middle" id="text_3">0.4</text></g><g id="xtick_4"><use x="268.632" xlink:href="#m187686ea39" y="307.584" stroke="#000" stroke-width=".8" id="line2d_4"/><text x="268.632" y="322.182" font-family="DejaVu Sans" font-size="10" font-weight="400" text-anchor="middle" id="text_4">0.6</text></g><g id="xtick_5"><use x="333.576" xlink:href="#m187686ea39" y="307.584" stroke="#000" stroke-width=".8" id="line2d_5"/><text x="333.576" y="322.182" font-family="DejaVu Sans" font-size="10" font-weight="400" text-anchor="middle" id="text_5">0.8</text></g><g id="xtick_6"><use x="398.52" xlink:href="#m187686ea39" y="307.584" stroke="#000" stroke-width=".8" id="line2d_6"/><text x="398.52" y="322.182" font-family="DejaVu Sans" font-size="10" font-weight="400" text-anchor="middle" id="text_6">1.0</text></g><text x="236.16" y="335.861" font-family="DejaVu Sans" font-size="10" font-weight="400" text-anchor="middle" id="text_7">Input Coin&apos;s Heads Probability (λ)</text></g><g id="matplotlib.axis_2"><g id="ytick_1"><g id="line2d_7"><defs><path d="M0 0h-3.5" id="m7decbf5bf2" stroke="#000" stroke-width=".8"/></defs><use x="57.6" xlink:href="#m7decbf5bf2" y="295.488" stroke="#000" stroke-width=".8"/></g><text x="50.6" y="299.287" font-family="DejaVu Sans" font-size="10" font-weight="400" text-anchor="end" id="text_8">0.0</text></g><g id="ytick_2"><use x="57.6" xlink:href="#m7decbf5bf2" y="264.865" stroke="#000" stroke-width=".8" id="line2d_8"/><text x="50.6" y="268.664" font-family="DejaVu Sans" font-size="10" font-weight="400" text-anchor="end" id="text_9">0.1</text></g><g id="ytick_3"><use x="57.6" xlink:href="#m7decbf5bf2" y="234.242" stroke="#000" stroke-width=".8" id="line2d_9"/><text x="50.6" y="238.042" font-family="DejaVu Sans" font-size="10" font-weight="400" text-anchor="end" id="text_10">0.2</text></g><g id="ytick_4"><use x="57.6" xlink:href="#m7decbf5bf2" y="203.62" stroke="#000" stroke-width=".8" id="line2d_10"/><text x="50.6" y="207.419" font-family="DejaVu Sans" font-size="10" font-weight="400" text-anchor="end" id="text_11">0.3</text></g><g id="ytick_5"><use x="57.6" xlink:href="#m7decbf5bf2" y="172.997" stroke="#000" stroke-width=".8" id="line2d_11"/><text x="50.6" y="176.796" font-family="DejaVu Sans" font-size="10" font-weight="400" text-anchor="end" id="text_12">0.4</text></g><g id="ytick_6"><use x="57.6" xlink:href="#m7decbf5bf2" y="142.374" stroke="#000" stroke-width=".8" id="line2d_12"/><text x="50.6" y="146.173" font-family="DejaVu Sans" font-size="10" font-weight="400" text-anchor="end" id="text_13">0.5</text></g><g id="ytick_7"><use x="57.6" xlink:href="#m7decbf5bf2" y="111.751" stroke="#000" stroke-width=".8" id="line2d_13"/><text x="50.6" y="115.551" font-family="DejaVu Sans" font-size="10" font-weight="400" text-anchor="end" id="text_14">0.6</text></g><g id="ytick_8"><use x="57.6" xlink:href="#m7decbf5bf2" y="81.129" stroke="#000" stroke-width=".8" id="line2d_14"/><text x="50.6" y="84.928" font-family="DejaVu Sans" font-size="10" font-weight="400" text-anchor="end" id="text_15">0.7</text></g><g id="ytick_9"><use x="57.6" xlink:href="#m7decbf5bf2" y="50.506" stroke="#000" stroke-width=".8" id="line2d_15"/><text x="50.6" y="54.305" font-family="DejaVu Sans" font-size="10" font-weight="400" text-anchor="end" id="text_16">0.8</text></g><text transform="rotate(-90 28.617 174.528)" x="28.617" y="174.528" font-family="DejaVu Sans" font-size="10" font-weight="400" text-anchor="middle" id="text_17">Simulated Mean / Function Value</text></g><path clip-path="url(#p31c1168249)" d="M73.833 295.457l3.28-3.092 3.278-3.092 3.28-3.09 3.28-3.09 3.278-3.085 3.28-3.083 3.28-3.08 3.278-3.075 3.28-3.07 3.28-3.064 3.278-3.058 3.28-3.051 3.28-3.044 3.278-3.036 3.28-3.028 3.28-3.018 3.278-3.01 3.28-2.998 3.28-2.988 3.279-2.977 3.279-2.966 3.28-2.953 3.279-2.94 3.279-2.928 3.28-2.914 3.279-2.9 3.279-2.886 3.28-2.87 3.279-2.857 3.279-2.84 3.28-2.824 3.279-2.809 3.279-2.791 3.28-2.775 3.279-2.758 3.279-2.74 3.28-2.722 3.279-2.705 3.279-2.686 3.28-2.668 3.279-2.649 3.279-2.63 3.28-2.612 3.279-2.592 3.279-2.573 3.28-2.553 3.279-2.533 3.279-2.514 3.28-2.494 3.279-2.474 3.279-2.454 3.28-2.434 3.279-2.414 3.279-2.394 3.28-2.373 3.279-2.353 3.279-2.333 3.28-2.313 3.279-2.292 3.28-2.272 3.278-2.251 3.28-2.232 3.28-2.211 3.278-2.192 3.28-2.17 3.28-2.152 3.278-2.13 3.28-2.112 3.28-2.091 3.278-2.072 3.28-2.052 3.28-2.033 3.278-2.013 3.28-1.994 3.28-1.974 3.278-1.956 3.28-1.936 3.28-1.918 3.278-1.899 3.28-1.88 3.28-1.862 3.279-1.843 3.279-1.826 3.28-1.807 3.279-1.789 3.279-1.772 3.28-1.753 3.279-1.737 3.279-1.719 3.28-1.702 3.279-1.685 3.279-1.668 3.28-1.651 3.279-1.635 3.279-1.618 3.28-1.602 3.279-1.586 3.279-1.57 3.28-1.554" fill="none" stroke="#1f77b4" stroke-linecap="square" stroke-width="1.5" id="line2d_16"/><path clip-path="url(#p31c1168249)" d="M73.833 295.488l3.28-2.45 3.278-4.9 3.28-2.45 3.28-7.961 3.278 3.675 3.28-6.125 3.28 5.512 3.278-16.536 3.28-4.9 3.28 4.9 3.278-.613 3.28-6.124 3.28 2.45 3.278-14.7 3.28-1.224 3.28-3.063 3.278 9.187 3.28-22.048 3.28 10.412 3.279-14.087 3.279 10.412 3.28-14.087 3.279 6.125 3.279-17.761 3.28 9.187 3.279-1.225 3.279 1.837 3.28-1.837 3.279-1.225 3.279-18.374 3.28 7.35 3.279-2.45 3.279-17.149 3.28 1.837 3.279 11.025 3.279-17.15 3.28-6.124 3.279 3.063 3.279 7.961 3.28-12.861 3.279.612 3.279-4.9 3.28-2.45 3.279 7.963 3.279-12.862 3.28 10.412 3.279 1.837 3.279-15.924 3.28-11.636 3.279 6.737 3.279-6.125 3.28 3.675 3.279-3.062 3.279-9.8 3.28 3.063 3.279-1.838 3.279-6.124 3.28-6.737 3.279 8.574 3.28-1.837 3.278-4.9 3.28 3.675 3.28-1.225 3.278-8.574 3.28-1.225 3.28 4.287 3.278-3.675 3.28-8.574 3.28 4.9 3.278-11.025 3.28-3.062 3.28.612 3.278 3.063 3.28-7.962 3.28-10.412 3.278 12.25 3.28-8.575 3.28-1.225 3.278 6.737 3.28-8.575 3.28-1.224 3.279 3.062 3.279-15.312 3.28 15.312 3.279-18.374 3.279-7.35 3.28 8.575 3.279-15.311 3.279 2.45 3.28 1.837 3.279-6.125 3.279 15.312 3.28-4.9 3.279-7.35 3.279 11.025 3.28-2.45 3.279-14.699 3.279 11.637 3.28-4.9" fill="none" stroke="#ff7f0e" stroke-linecap="square" stroke-width="1.5" id="line2d_17"/><path d="M57.6 307.584V41.472" fill="none" stroke="#000" stroke-linecap="square" stroke-width=".8" id="patch_3"/><path d="M414.72 307.584V41.472" fill="none" stroke="#000" stroke-linecap="square" stroke-width=".8" id="patch_4"/><path d="M57.6 307.584h357.12" fill="none" stroke="#000" stroke-linecap="square" stroke-width=".8" id="patch_5"/><path d="M57.6 41.472h357.12" fill="none" stroke="#000" stroke-linecap="square" stroke-width=".8" id="patch_6"/><text x="236.16" y="35.472" font-family="DejaVu Sans" font-size="12" font-weight="400" text-anchor="middle" id="text_18">Expected Value in arctan(x) (Two-Coin Special Case) Algorithm</text><g id="legend_1"><path d="M110.536 302.584H407.72q2 0 2-2v-28.356q0-2-2-2H110.536q-2 0-2 2v28.356q0 2 2 2z" fill="#fff" opacity=".8" stroke="#ccc" id="patch_7"/><path d="M112.536 278.326h20" fill="none" stroke="#1f77b4" stroke-linecap="square" stroke-width="1.5" id="line2d_18"/><text x="140.536" y="281.826" font-family="DejaVu Sans" font-size="10" font-weight="400" id="text_19">arctan(x)</text><path d="M112.536 293.004h20" fill="none" stroke="#ff7f0e" stroke-linecap="square" stroke-width="1.5" id="line2d_20"/><text x="140.536" y="296.504" font-family="DejaVu Sans" font-size="10" font-weight="400" id="text_20">Simulated Mean of arctan(x) (Two-Coin Special Case)</text></g></g></g><defs><clipPath id="p31c1168249"><path d="M57.6 41.472h357.12v266.112H57.6z"/></clipPath></defs></svg>
